X: 2256
T: The Charms of the Fair
%R: jig
Z: 2014 John Chambers <jc:trillian.mit.edu>
B: Preston "Twenty four Country Dances for the Year 1794" p.108 #2
F: http://www.vwml.org/browse/browse-collections-dance-tune-books/browse-prestons1794# 2014-8-10
M: 6/8
L: 1/8
K: D
|:\
ABA FED | F2G A2A |\
A2B g2f | efd cBA |\
ABA FED | F2G A2A |
Bgf edc | d3 D3 :|\
|:\
f2d afd | e2c aec |\
dcd Bed | cAA A3 |
B2G dBG | A2F dAF |\
[1 GFG EAG | FDD D2 :|\
[2 Bcd efg | fdd d3 |]
% - - - - - - - - - - - - - - - - - - - - - - - - -
%%begintext align
%%     Cast of 1 Cu: & hands 4 at bottom .|
%%        Cast up & hands 4 at top :|
%% Lead down the middle up again & cast off :|.
%%           Right & left at top :|:
%%endtext
% - - - - - - - - - - - - - - - - - - - - - - - - -
